src/3-context/stop--train.svg

<svg width="1300" height="1000" viewBox="0 0 1300 1000" fill="none" xmlns="http://www.w3.org/2000/svg"><path d="M144.217 99.52a3.35 3.35 0 0 1 4.85.05l16.042 17.183a2.999 2.999 0 0 1 .023 4.07l-16.059 17.581a3.353 3.353 0 0 1-4.988-4.483l13.364-15.106-13.315-14.712a3.35 3.35 0 0 1 .083-4.584Z" fill="#000"/><path fill-rule="evenodd" clip-rule="evenodd" d="M137 0h-7v69h-15c-8.284 0-15 6.716-15 15v70c0 8.284 6.716 15 15 15h270c8.284 0 15-6.716 15-15V84c0-8.284-6.716-15-15-15h-15V0h-7v69H137V0Zm246 76c5.523 0 10 4.477 10 10v66c0 5.523-4.477 10-10 10H207V76h176Zm-266 0c-5.523 0-10 4.477-10 10v66c0 5.523 4.477 10 10 10h83V76h-83Zm1183 31H674c-8.284 0-15 6.716-15 15v28h641v7H659v436h641v7H659v293h641v7H659v30c0 8.284 6.716 15 15 15h126v-10a5 5 0 0 1 5-5h397c2.76 0 5 2.239 5 5v10h93v7h-23v18c0 11.046-8.95 20-20 20h-52.68c-3.45 5.978-9.92 10-17.32 10H820c-7.403 0-13.866-4.022-17.324-10H750c-11.046 0-20-8.954-20-20v-18h-58c-11.046 0-20-8.954-20-20V120c0-11.046 8.954-20 20-20h628v7ZM737 952h63v28c0 1.02.076 2.021.224 3H752c-8.284 0-15-6.716-15-15v-16Zm533 0h-63v28c0 1.02-.08 2.021-.22 3H1255c8.28 0 15-6.716 15-15v-16Zm-70-15v41c0 8.284-6.72 15-15 15H822c-8.284 0-15-6.716-15-15v-41h393Z" fill="#000"/><path fill-rule="evenodd" clip-rule="evenodd" d="M742 800c22.091 0 40-17.909 40-40s-17.909-40-40-40-40 17.909-40 40 17.909 40 40 40Zm0-7c18.225 0 33-14.775 33-33s-14.775-33-33-33-33 14.775-33 33 14.775 33 33 33Zm140-33c0 22.091-17.909 40-40 40s-40-17.909-40-40 17.909-40 40-40 40 17.909 40 40Zm-7 0c0 18.225-14.775 33-33 33s-33-14.775-33-33 14.775-33 33-33 33 14.775 33 33Zm325 40c22.09 0 40-17.909 40-40s-17.91-40-40-40-40 17.909-40 40 17.91 40 40 40Zm0-7c18.23 0 33-14.775 33-33s-14.77-33-33-33-33 14.775-33 33 14.77 33 33 33Z" fill="#000"/><path d="M1260 760c0 22.091 17.91 40 40 40v-7c-18.23 0-33-14.775-33-33s14.77-33 33-33v-7c-22.09 0-40 17.909-40 40Z" fill="#000"/></svg>

<svg width="1300" height="1000" viewBox="0 0 1300 1000" fill="none" xmlns="http://www.w3.org/2000/svg">
<path d="M144.217 99.5192C145.551 98.1479 147.761 98.1707 149.067 99.5692L165.109 116.753C166.177 117.896 166.187 119.668 165.132 120.823L149.073 138.404C147.781 139.817 145.571 139.865 144.221 138.508C142.972 137.254 142.913 135.246 144.085 133.921L157.449 118.815L144.134 104.103C142.948 102.793 142.984 100.786 144.217 99.5192Z" fill="black"/>
<path fill-rule="evenodd" clip-rule="evenodd" d="M137 0H130V69H115C106.716 69 100 75.7157 100 84V154C100 162.284 106.716 169 115 169H385C393.284 169 400 162.284 400 154V84C400 75.7157 393.284 69 385 69H370V0H363V69H137V0ZM383 76C388.523 76 393 80.4771 393 86V152C393 157.523 388.523 162 383 162H207V76H383ZM117 76C111.477 76 107 80.4771 107 86V152C107 157.523 111.477 162 117 162H200V76H117Z" fill="black"/>
<path fill-rule="evenodd" clip-rule="evenodd" d="M1300 107H674C665.716 107 659 113.716 659 122V150H1300V157H659V593H1300V600H659V893H1300V900H659V930C659 938.284 665.716 945 674 945H800V935C800 932.239 802.239 930 805 930H1202C1204.76 930 1207 932.239 1207 935V945H1300V952H1277V970C1277 981.046 1268.05 990 1257 990H1204.32C1200.87 995.978 1194.4 1000 1187 1000H820C812.597 1000 806.134 995.978 802.676 990H750C738.954 990 730 981.046 730 970V952H672C660.954 952 652 943.046 652 932V120C652 108.954 660.954 100 672 100H1300V107ZM737 952H800V980C800 981.02 800.076 982.021 800.224 983H752C743.716 983 737 976.284 737 968V952ZM1270 952H1207V980C1207 981.02 1206.92 982.021 1206.78 983H1255C1263.28 983 1270 976.284 1270 968V952ZM1200 937V978C1200 986.284 1193.28 993 1185 993H822C813.716 993 807 986.284 807 978V937H1200Z" fill="black"/>
<path fill-rule="evenodd" clip-rule="evenodd" d="M742 800C764.091 800 782 782.091 782 760C782 737.909 764.091 720 742 720C719.909 720 702 737.909 702 760C702 782.091 719.909 800 742 800ZM742 793C760.225 793 775 778.225 775 760C775 741.775 760.225 727 742 727C723.775 727 709 741.775 709 760C709 778.225 723.775 793 742 793Z" fill="black"/>
<path fill-rule="evenodd" clip-rule="evenodd" d="M882 760C882 782.091 864.091 800 842 800C819.909 800 802 782.091 802 760C802 737.909 819.909 720 842 720C864.091 720 882 737.909 882 760ZM875 760C875 778.225 860.225 793 842 793C823.775 793 809 778.225 809 760C809 741.775 823.775 727 842 727C860.225 727 875 741.775 875 760Z" fill="black"/>
<path fill-rule="evenodd" clip-rule="evenodd" d="M1200 800C1222.09 800 1240 782.091 1240 760C1240 737.909 1222.09 720 1200 720C1177.91 720 1160 737.909 1160 760C1160 782.091 1177.91 800 1200 800ZM1200 793C1218.23 793 1233 778.225 1233 760C1233 741.775 1218.23 727 1200 727C1181.77 727 1167 741.775 1167 760C1167 778.225 1181.77 793 1200 793Z" fill="black"/>
<path d="M1260 760C1260 782.091 1277.91 800 1300 800V793C1281.77 793 1267 778.225 1267 760C1267 741.775 1281.77 727 1300 727V720C1277.91 720 1260 737.909 1260 760Z" fill="black"/>
</svg>
